Newaita-dark/apps/64/preferences-desktop-accessibility.svg

<svg height="64" viewBox="0 0 64 64" width="64" xmlns="http://www.w3.org/2000/svg" xmlns:xlink="http://www.w3.org/1999/xlink"><linearGradient id="a"><stop offset="0" stop-opacity=".313726"/><stop offset=".222222" stop-opacity=".27451"/><stop offset="1" stop-opacity="0"/></linearGradient><radialGradient id="b" cx="450.908936" cy="189.579361" gradientTransform="matrix(.00000035 -.156265 -.281277 -.0000002 89.046304 127.190659)" gradientUnits="userSpaceOnUse" r="21.166656" xlink:href="#a"/><radialGradient id="c" cx="450.908936" cy="189.579361" gradientTransform="matrix(-.00000035 .156265 .281277 .0000002 -25.540237 -15.054964)" gradientUnits="userSpaceOnUse" r="21.166656" xlink:href="#a"/><radialGradient id="d" cx="450.908936" cy="189.579361" gradientTransform="matrix(-.00000035 -.156265 .281277 -.0000002 -25.540237 127.190659)" gradientUnits="userSpaceOnUse" r="21.166656" xlink:href="#a"/><radialGradient id="e" cx="450.908936" cy="189.579361" gradientTransform="matrix(.00000035 .156265 -.281277 .0000002 89.0463 -15.054965)" gradientUnits="userSpaceOnUse" r="21.166656" xlink:href="#a"/><linearGradient id="f" gradientTransform="matrix(.0267201 0 0 .125012 24.930772 26.877567)" gradientUnits="userSpaceOnUse" x1="255.323059" x2="255.323044" y1="233.5" y2="254.666656"><stop offset="0" stop-opacity=".27451"/><stop offset="1" stop-opacity="0"/></linearGradient><linearGradient id="g" gradientUnits="userSpaceOnUse" x1="254" x2="254" y1="-168.666672" y2="233.5"><stop offset="0" stop-color="#ffb74d"/><stop offset="1" stop-color="#ffa726"/></linearGradient><linearGradient id="h" gradientUnits="userSpaceOnUse" x1="31.75306003528" x2="31.75306003528" y1="42.83746193956" y2="17.69962190428"><stop offset="0" stop-color="#424242"/><stop offset="1" stop-color="#616161"/></linearGradient><path d="m36.382812 56.066406h5.292969v-2.644531h-5.292969zm0 0" fill="url(#b)"/><path d="m27.121094 56.066406h-5.289063v2.648438h5.289063zm0 0" fill="url(#c)"/><path d="m27.121094 56.066406h-5.289063v-2.644531h5.289063zm0 0" fill="url(#d)"/><path d="m36.382812 56.066406h5.292969v2.648438h-5.292969zm0 0" fill="url(#e)"/><path d="m27.121094 55.40625h9.261718v3.308594h-9.261718zm0 0" fill="url(#f)"/><path d="m254.006994-168.660675c111.051895 0 201.074548 90.022653 201.074548 201.074548s-90.022653 201.074548-201.074548 201.074548c-111.051896 0-201.105796-90.022653-201.105796-201.074548s90.0539-201.074548 201.105796-201.074548zm0 0" fill="url(#g)" stroke="#333" stroke-linecap="round" stroke-width="3" transform="matrix(.125012 0 0 .125012 0 26.877566)"/><path d="m31.753906 55.902344c-13.925781 0-25.140625-11.210938-25.140625-25.136719 0-.082031.003907-.164063.003907-.246094.128906 13.8125 11.292968 24.890625 25.136718 24.890625s25.003906-11.078125 25.136719-24.890625v.246094c0 13.925781-11.210937 25.136719-25.136719 25.136719zm0 0" fill-opacity=".196078"/><path d="m31.753906 5.957031c-13.925781 0-25.140625 11.210938-25.140625 25.136719 0 .082031.003907.164062.003907.246094.128906-13.808594 11.292968-24.890625 25.136718-24.890625s25.003906 11.082031 25.136719 24.890625c0-.082032 0-.164063 0-.246094 0-13.925781-11.210937-25.136719-25.136719-25.136719zm0 0" fill="#fff" fill-opacity=".392157"/><path d="m31.753906 5.605469c-14.027344 0-25.328125 11.296875-25.328125 25.324219 0 14.027343 11.300781 25.324218 25.328125 25.324218s25.324219-11.296875 25.324219-25.324218c0-14.027344-11.296875-25.324219-25.324219-25.324219zm0 .375c13.824219 0 24.949219 11.125 24.949219 24.949219 0 13.824218-11.125 24.949218-24.949219 24.949218-13.828125 0-24.953125-11.125-24.953125-24.949218 0-13.824219 11.125-24.949219 24.953125-24.949219zm0 0" fill="#212121"/><path d="m31.152344 17.699219c-1.378906 0-2.484375 1.109375-2.484375 2.484375 0 1.378906 1.105469 2.488281 2.484375 2.488281 1.375 0 2.484375-1.109375 2.484375-2.488281 0-1.375-1.109375-2.484375-2.484375-2.484375zm-1.242188 6.214843c-.6875 0-1.242187.554688-1.242187 1.242188v8.699219c0 .6875.554687 1.242187 1.242187 1.242187h9.941406v4.972656c0 .6875.554688 1.242188 1.242188 1.242188s1.242188-.554688 1.242188-1.242188v-6.214843s-.554688-1.242188-1.242188-1.242188h-7.457031v-3.726562h4.972656c.6875 0 1.242187-.554688 1.242187-1.246094 0-.6875-.554687-1.242187-1.242187-1.242187h-4.972656c0-2.484376-.554688-2.484376-1.242188-2.484376zm-2.484375 4.738282c-2.230469 1.285156-3.730469 3.679687-3.730469 6.445312 0 4.132813 3.324219 7.457032 7.457032 7.457032 3.710937 0 6.753906-2.675782 7.339844-6.214844h-1.242188c-.578125 2.839844-3.085938 4.972656-6.097656 4.972656-3.441406 0-6.214844-2.769531-6.214844-6.214844 0-2.039062.976562-3.839844 2.488281-4.96875zm0 0" fill="url(#h)"/><path d="m28.703125 20.488281c-.023437.136719-.035156.277344-.035156.417969 0 1.378906 1.105469 2.488281 2.484375 2.488281 1.375 0 2.484375-1.109375 2.484375-2.488281 0-.140625-.011719-.28125-.035157-.417969-.199218 1.171875-1.214843 2.0625-2.449218 2.0625s-2.25-.890625-2.449219-2.0625zm11.074219 7.457031c-.171875.476563-.628906.820313-1.167969.820313h-4.972656v.839844h4.972656c.6875 0 1.242187-.554688 1.242187-1.242188 0-.148437-.027343-.289062-.074218-.417969zm-12.351563 2.0625c-1.511719 1.132813-2.488281 2.929688-2.488281 4.972657 0 .140625.007812.28125.015625.417969.125-1.863282 1.0625-3.496094 2.472656-4.546876zm1.242188 3.730469v.839844c0 .6875.554687 1.242187 1.242187 1.242187h9.941406v-.839843h-9.941406c-.6875 0-1.242187-.554688-1.242187-1.242188zm-4.960938 1.660157c-.007812.140624-.011719.28125-.011719.421874 0 4.132813 3.324219 7.457032 7.457032 7.457032 3.710937 0 6.753906-2.675782 7.339844-6.214844h-.191407c-.890625 3.113281-3.738281 5.375-7.148437 5.375-3.988282 0-7.230469-3.105469-7.445313-7.039062zm16.144531 4.550781v.84375c0 .6875.554688 1.242187 1.242188 1.242187s1.242188-.554687 1.242188-1.242187v-.84375c0 .691406-.554688 1.242187-1.242188 1.242187s-1.242188-.550781-1.242188-1.242187zm0 0" fill-opacity=".235294"/><path d="m31.152344 17.699219c-1.378906 0-2.484375 1.109375-2.484375 2.484375 0 .125.007812.25.027343.367187.175782-1.203125 1.203126-2.121093 2.457032-2.121093s2.28125.917968 2.457031 2.121093c.019531-.117187.027344-.242187.027344-.367187 0-1.375-1.109375-2.484375-2.484375-2.484375zm-1.242188 6.214843c-.6875 0-1.242187.554688-1.242187 1.242188v.730469c0-.6875.554687-1.242188 1.242187-1.242188h2.484375c.6875 0 1.242188 0 1.242188 2.488281h4.972656c.558594 0 1.03125.367188 1.1875.875.035156-.117187.054687-.238281.054687-.367187 0-.6875-.554687-1.242187-1.242187-1.242187h-4.972656c0-2.484376-.554688-2.484376-1.242188-2.484376zm-2.484375 4.738282c-2.230469 1.285156-3.730469 3.679687-3.730469 6.445312 0 .121094.003907.242188.007813.363282.128906-2.609376 1.589844-4.847657 3.722656-6.078126zm6.210938 3.960937v.730469h7.457031c.6875 0 1.242188 1.246094 1.242188 1.246094v-.734375s-.554688-1.242188-1.242188-1.242188zm-8.679688 2.984375c-.011719.164063-.019531.328125-.019531.492188 0 .125.003906.246094.011719.367187.003906-.042969.003906-.085937.007812-.128906.253907 3.210937 2.921875 5.714844 6.195313 5.714844 3.011718 0 5.519531-2.132813 6.097656-4.96875h1.082031c.066407-.238281.121094-.484375.160157-.734375h-1.242188c-.578125 2.839844-3.085938 4.972656-6.097656 4.972656-3.273438 0-5.941406-2.507812-6.195313-5.714844zm0 0" fill="#fff" fill-opacity=".392157"/><path d="m941.839312 535.106441c-41.688937 0-75.110947 33.540109-75.110947 75.110947 0 41.688938 33.42201 75.229047 75.110947 75.229047 41.570839 0 75.110948-33.540109 75.110948-75.229047 0-41.570838-33.540109-75.110947-75.110948-75.110947zm-37.555473 187.895468c-20.78542 0-37.555474 16.770054-37.555474 37.555474v263.006416c0 20.785419 16.770054 37.555473 37.555474 37.555473h300.561889v150.339995c0 20.785419 16.770055 37.555474 37.555474 37.555474 20.78542 0 37.555474-16.770055 37.555474-37.555474v-187.895468s-16.770054-37.555474-37.555474-37.555474h-225.450942v-112.666422h150.339994c20.78542 0 37.555474-16.770054 37.555474-37.673573 0-20.785419-16.770054-37.555473-37.555474-37.555473h-150.339994c0-75.110948-16.770054-75.110948-37.555474-75.110948zm-75.110948 143.254056c-67.434514 38.854562-112.78452 111.249234-112.78452 194.863307 0 124.948715 100.502227 225.450942 225.450941 225.450942 112.194026 0 204.193127-80.897797 221.907973-187.895468h-37.555474c-17.478648 85.857955-93.298189 150.339995-184.352499 150.339995-104.045196 0-187.895468-83.732173-187.895468-187.895469 0-61.647664 29.524744-116.091291 75.229047-150.221895zm0 0" fill="none" stroke="#212121" stroke-width="11.338584" transform="scale(.0330761)"/></svg>

<?xml version="1.0" encoding="UTF-8"?>
<svg xmlns="http://www.w3.org/2000/svg" xmlns:xlink="http://www.w3.org/1999/xlink" width="64px" height="64px" viewBox="0 0 64 64" version="1.1">
<defs>
<radialGradient id="radial0" gradientUnits="userSpaceOnUse" cx="450.908936" cy="189.579361" fx="450.908936" fy="189.579361" r="21.166656" gradientTransform="matrix(0.000000348341,-0.156265,-0.281277,-0.000000203077,89.046304,127.190659)">
<stop offset="0" style="stop-color:rgb(0%,0%,0%);stop-opacity:0.313726;"/>
<stop offset="0.222222" style="stop-color:rgb(0%,0%,0%);stop-opacity:0.27451;"/>
<stop offset="1" style="stop-color:rgb(0%,0%,0%);stop-opacity:0;"/>
</radialGradient>
<radialGradient id="radial1" gradientUnits="userSpaceOnUse" cx="450.908936" cy="189.579361" fx="450.908936" fy="189.579361" r="21.166656" gradientTransform="matrix(-0.000000348341,0.156265,0.281277,0.000000203077,-25.540237,-15.054964)">
<stop offset="0" style="stop-color:rgb(0%,0%,0%);stop-opacity:0.313726;"/>
<stop offset="0.222222" style="stop-color:rgb(0%,0%,0%);stop-opacity:0.27451;"/>
<stop offset="1" style="stop-color:rgb(0%,0%,0%);stop-opacity:0;"/>
</radialGradient>
<radialGradient id="radial2" gradientUnits="userSpaceOnUse" cx="450.908936" cy="189.579361" fx="450.908936" fy="189.579361" r="21.166656" gradientTransform="matrix(-0.000000348341,-0.156265,0.281277,-0.000000203077,-25.540237,127.190659)">
<stop offset="0" style="stop-color:rgb(0%,0%,0%);stop-opacity:0.313726;"/>
<stop offset="0.222222" style="stop-color:rgb(0%,0%,0%);stop-opacity:0.27451;"/>
<stop offset="1" style="stop-color:rgb(0%,0%,0%);stop-opacity:0;"/>
</radialGradient>
<radialGradient id="radial3" gradientUnits="userSpaceOnUse" cx="450.908936" cy="189.579361" fx="450.908936" fy="189.579361" r="21.166656" gradientTransform="matrix(0.000000348341,0.156265,-0.281277,0.000000203077,89.0463,-15.054965)">
<stop offset="0" style="stop-color:rgb(0%,0%,0%);stop-opacity:0.313726;"/>
<stop offset="0.222222" style="stop-color:rgb(0%,0%,0%);stop-opacity:0.27451;"/>
<stop offset="1" style="stop-color:rgb(0%,0%,0%);stop-opacity:0;"/>
</radialGradient>
<linearGradient id="linear0" gradientUnits="userSpaceOnUse" x1="255.323059" y1="233.5" x2="255.323044" y2="254.666656" gradientTransform="matrix(0.0267201,0,0,0.125012,24.930772,26.877567)">
<stop offset="0" style="stop-color:rgb(0%,0%,0%);stop-opacity:0.27451;"/>
<stop offset="1" style="stop-color:rgb(0%,0%,0%);stop-opacity:0;"/>
</linearGradient>
<linearGradient id="linear1" gradientUnits="userSpaceOnUse" x1="254" y1="-168.666672" x2="254" y2="233.5" >
<stop offset="0" style="stop-color:rgb(100%,71.764708%,30.19608%);stop-opacity:1;"/>
<stop offset="1" style="stop-color:rgb(100%,65.490198%,14.901961%);stop-opacity:1;"/>
</linearGradient>
<linearGradient id="linear2" gradientUnits="userSpaceOnUse" x1="960.000122" y1="1295.118286" x2="960.000122" y2="535.118164" gradientTransform="matrix(0.0330761,0,0,0.0330761,0.000000253416,0.000000389943)">
<stop offset="0" style="stop-color:rgb(25.882354%,25.882354%,25.882354%);stop-opacity:1;"/>
<stop offset="1" style="stop-color:rgb(38.039216%,38.039216%,38.039216%);stop-opacity:1;"/>
</linearGradient>
</defs>
<g id="surface1">
<path style=" stroke:none;fill-rule:nonzero;fill:url(#radial0);" d="M 36.382812 56.066406 L 41.675781 56.066406 L 41.675781 53.421875 L 36.382812 53.421875 Z M 36.382812 56.066406 "/>
<path style=" stroke:none;fill-rule:nonzero;fill:url(#radial1);" d="M 27.121094 56.066406 L 21.832031 56.066406 L 21.832031 58.714844 L 27.121094 58.714844 Z M 27.121094 56.066406 "/>
<path style=" stroke:none;fill-rule:nonzero;fill:url(#radial2);" d="M 27.121094 56.066406 L 21.832031 56.066406 L 21.832031 53.421875 L 27.121094 53.421875 Z M 27.121094 56.066406 "/>
<path style=" stroke:none;fill-rule:nonzero;fill:url(#radial3);" d="M 36.382812 56.066406 L 41.675781 56.066406 L 41.675781 58.714844 L 36.382812 58.714844 Z M 36.382812 56.066406 "/>
<path style=" stroke:none;fill-rule:nonzero;fill:url(#linear0);" d="M 27.121094 55.40625 L 36.382812 55.40625 L 36.382812 58.714844 L 27.121094 58.714844 Z M 27.121094 55.40625 "/>
<path style="fill-rule:nonzero;fill:url(#linear1);stroke-width:3;stroke-linecap:round;stroke-linejoin:miter;stroke:rgb(20%,20%,20%);stroke-opacity:1;stroke-miterlimit:4;" d="M 254.006994 -168.660675 C 365.058889 -168.660675 455.081542 -78.638022 455.081542 32.413873 C 455.081542 143.465768 365.058889 233.488421 254.006994 233.488421 C 142.955098 233.488421 52.901198 143.465768 52.901198 32.413873 C 52.901198 -78.638022 142.955098 -168.660675 254.006994 -168.660675 Z M 254.006994 -168.660675 " transform="matrix(0.125012,0,0,0.125012,0,26.877566)"/>
<path style=" stroke:none;fill-rule:nonzero;fill:rgb(0%,0%,0%);fill-opacity:0.196078;" d="M 31.753906 55.902344 C 17.828125 55.902344 6.613281 44.691406 6.613281 30.765625 C 6.613281 30.683594 6.617188 30.601562 6.617188 30.519531 C 6.746094 44.332031 17.910156 55.410156 31.753906 55.410156 C 45.597656 55.410156 56.757812 44.332031 56.890625 30.519531 C 56.890625 30.601562 56.890625 30.683594 56.890625 30.765625 C 56.890625 44.691406 45.679688 55.902344 31.753906 55.902344 Z M 31.753906 55.902344 "/>
<path style=" stroke:none;fill-rule:nonzero;fill:rgb(100%,100%,100%);fill-opacity:0.392157;" d="M 31.753906 5.957031 C 17.828125 5.957031 6.613281 17.167969 6.613281 31.09375 C 6.613281 31.175781 6.617188 31.257812 6.617188 31.339844 C 6.746094 17.53125 17.910156 6.449219 31.753906 6.449219 C 45.597656 6.449219 56.757812 17.53125 56.890625 31.339844 C 56.890625 31.257812 56.890625 31.175781 56.890625 31.09375 C 56.890625 17.167969 45.679688 5.957031 31.753906 5.957031 Z M 31.753906 5.957031 "/>
<path style=" stroke:none;fill-rule:nonzero;fill:rgb(12.941177%,12.941177%,12.941177%);fill-opacity:1;" d="M 31.753906 5.605469 C 17.726562 5.605469 6.425781 16.902344 6.425781 30.929688 C 6.425781 44.957031 17.726562 56.253906 31.753906 56.253906 C 45.78125 56.253906 57.078125 44.957031 57.078125 30.929688 C 57.078125 16.902344 45.78125 5.605469 31.753906 5.605469 Z M 31.753906 5.980469 C 45.578125 5.980469 56.703125 17.105469 56.703125 30.929688 C 56.703125 44.753906 45.578125 55.878906 31.753906 55.878906 C 17.925781 55.878906 6.800781 44.753906 6.800781 30.929688 C 6.800781 17.105469 17.925781 5.980469 31.753906 5.980469 Z M 31.753906 5.980469 "/>
<path style=" stroke:none;fill-rule:nonzero;fill:url(#linear2);" d="M 31.152344 17.699219 C 29.773438 17.699219 28.667969 18.808594 28.667969 20.183594 C 28.667969 21.5625 29.773438 22.671875 31.152344 22.671875 C 32.527344 22.671875 33.636719 21.5625 33.636719 20.183594 C 33.636719 18.808594 32.527344 17.699219 31.152344 17.699219 Z M 29.910156 23.914062 C 29.222656 23.914062 28.667969 24.46875 28.667969 25.15625 L 28.667969 33.855469 C 28.667969 34.542969 29.222656 35.097656 29.910156 35.097656 L 39.851562 35.097656 L 39.851562 40.070312 C 39.851562 40.757812 40.40625 41.3125 41.09375 41.3125 C 41.78125 41.3125 42.335938 40.757812 42.335938 40.070312 L 42.335938 33.855469 C 42.335938 33.855469 41.78125 32.613281 41.09375 32.613281 L 33.636719 32.613281 L 33.636719 28.886719 L 38.609375 28.886719 C 39.296875 28.886719 39.851562 28.332031 39.851562 27.640625 C 39.851562 26.953125 39.296875 26.398438 38.609375 26.398438 L 33.636719 26.398438 C 33.636719 23.914062 33.082031 23.914062 32.394531 23.914062 Z M 27.425781 28.652344 C 25.195312 29.9375 23.695312 32.332031 23.695312 35.097656 C 23.695312 39.230469 27.019531 42.554688 31.152344 42.554688 C 34.863281 42.554688 37.90625 39.878906 38.492188 36.339844 L 37.25 36.339844 C 36.671875 39.179688 34.164062 41.3125 31.152344 41.3125 C 27.710938 41.3125 24.9375 38.542969 24.9375 35.097656 C 24.9375 33.058594 25.914062 31.257812 27.425781 30.128906 Z M 27.425781 28.652344 "/>
<path style=" stroke:none;fill-rule:nonzero;fill:rgb(0%,0%,0%);fill-opacity:0.235294;" d="M 28.703125 20.488281 C 28.679688 20.625 28.667969 20.765625 28.667969 20.90625 C 28.667969 22.285156 29.773438 23.394531 31.152344 23.394531 C 32.527344 23.394531 33.636719 22.285156 33.636719 20.90625 C 33.636719 20.765625 33.625 20.625 33.601562 20.488281 C 33.402344 21.660156 32.386719 22.550781 31.152344 22.550781 C 29.917969 22.550781 28.902344 21.660156 28.703125 20.488281 Z M 39.777344 27.945312 C 39.605469 28.421875 39.148438 28.765625 38.609375 28.765625 L 33.636719 28.765625 L 33.636719 29.605469 L 38.609375 29.605469 C 39.296875 29.605469 39.851562 29.050781 39.851562 28.363281 C 39.851562 28.214844 39.824219 28.074219 39.777344 27.945312 Z M 27.425781 30.007812 C 25.914062 31.140625 24.9375 32.9375 24.9375 34.980469 C 24.9375 35.121094 24.945312 35.261719 24.953125 35.398438 C 25.078125 33.535156 26.015625 31.902344 27.425781 30.851562 Z M 28.667969 33.738281 L 28.667969 34.578125 C 28.667969 35.265625 29.222656 35.820312 29.910156 35.820312 L 39.851562 35.820312 L 39.851562 34.980469 L 29.910156 34.980469 C 29.222656 34.980469 28.667969 34.425781 28.667969 33.738281 Z M 23.707031 35.398438 C 23.699219 35.539062 23.695312 35.679688 23.695312 35.820312 C 23.695312 39.953125 27.019531 43.277344 31.152344 43.277344 C 34.863281 43.277344 37.90625 40.601562 38.492188 37.0625 L 38.300781 37.0625 C 37.410156 40.175781 34.5625 42.4375 31.152344 42.4375 C 27.164062 42.4375 23.921875 39.332031 23.707031 35.398438 Z M 39.851562 39.949219 L 39.851562 40.792969 C 39.851562 41.480469 40.40625 42.035156 41.09375 42.035156 C 41.78125 42.035156 42.335938 41.480469 42.335938 40.792969 L 42.335938 39.949219 C 42.335938 40.640625 41.78125 41.191406 41.09375 41.191406 C 40.40625 41.191406 39.851562 40.640625 39.851562 39.949219 Z M 39.851562 39.949219 "/>
<path style=" stroke:none;fill-rule:nonzero;fill:rgb(100%,100%,100%);fill-opacity:0.392157;" d="M 31.152344 17.699219 C 29.773438 17.699219 28.667969 18.808594 28.667969 20.183594 C 28.667969 20.308594 28.675781 20.433594 28.695312 20.550781 C 28.871094 19.347656 29.898438 18.429688 31.152344 18.429688 C 32.40625 18.429688 33.433594 19.347656 33.609375 20.550781 C 33.628906 20.433594 33.636719 20.308594 33.636719 20.183594 C 33.636719 18.808594 32.527344 17.699219 31.152344 17.699219 Z M 29.910156 23.914062 C 29.222656 23.914062 28.667969 24.46875 28.667969 25.15625 L 28.667969 25.886719 C 28.667969 25.199219 29.222656 24.644531 29.910156 24.644531 L 32.394531 24.644531 C 33.082031 24.644531 33.636719 24.644531 33.636719 27.132812 L 38.609375 27.132812 C 39.167969 27.132812 39.640625 27.5 39.796875 28.007812 C 39.832031 27.890625 39.851562 27.769531 39.851562 27.640625 C 39.851562 26.953125 39.296875 26.398438 38.609375 26.398438 L 33.636719 26.398438 C 33.636719 23.914062 33.082031 23.914062 32.394531 23.914062 Z M 27.425781 28.652344 C 25.195312 29.9375 23.695312 32.332031 23.695312 35.097656 C 23.695312 35.21875 23.699219 35.339844 23.703125 35.460938 C 23.832031 32.851562 25.292969 30.613281 27.425781 29.382812 Z M 33.636719 32.613281 L 33.636719 33.34375 L 41.09375 33.34375 C 41.78125 33.34375 42.335938 34.589844 42.335938 34.589844 L 42.335938 33.855469 C 42.335938 33.855469 41.78125 32.613281 41.09375 32.613281 Z M 24.957031 35.597656 C 24.945312 35.761719 24.9375 35.925781 24.9375 36.089844 C 24.9375 36.214844 24.941406 36.335938 24.949219 36.457031 C 24.953125 36.414062 24.953125 36.371094 24.957031 36.328125 C 25.210938 39.539062 27.878906 42.042969 31.152344 42.042969 C 34.164062 42.042969 36.671875 39.910156 37.25 37.074219 L 38.332031 37.074219 C 38.398438 36.835938 38.453125 36.589844 38.492188 36.339844 L 37.25 36.339844 C 36.671875 39.179688 34.164062 41.3125 31.152344 41.3125 C 27.878906 41.3125 25.210938 38.804688 24.957031 35.597656 Z M 24.957031 35.597656 "/>
<path style="fill:none;stroke-width:11.338584;stroke-linecap:butt;stroke-linejoin:miter;stroke:rgb(12.941177%,12.941177%,12.941177%);stroke-opacity:1;stroke-miterlimit:4;" d="M 941.839312 535.106441 C 900.150375 535.106441 866.728365 568.64655 866.728365 610.217388 C 866.728365 651.906326 900.150375 685.446435 941.839312 685.446435 C 983.410151 685.446435 1016.95026 651.906326 1016.95026 610.217388 C 1016.95026 568.64655 983.410151 535.106441 941.839312 535.106441 Z M 904.283839 723.001909 C 883.498419 723.001909 866.728365 739.771963 866.728365 760.557383 L 866.728365 1023.563799 C 866.728365 1044.349218 883.498419 1061.119272 904.283839 1061.119272 L 1204.845728 1061.119272 L 1204.845728 1211.459267 C 1204.845728 1232.244686 1221.615783 1249.014741 1242.401202 1249.014741 C 1263.186622 1249.014741 1279.956676 1232.244686 1279.956676 1211.459267 L 1279.956676 1023.563799 C 1279.956676 1023.563799 1263.186622 986.008325 1242.401202 986.008325 L 1016.95026 986.008325 L 1016.95026 873.341903 L 1167.290254 873.341903 C 1188.075674 873.341903 1204.845728 856.571849 1204.845728 835.66833 C 1204.845728 814.882911 1188.075674 798.112857 1167.290254 798.112857 L 1016.95026 798.112857 C 1016.95026 723.001909 1000.180206 723.001909 979.394786 723.001909 Z M 829.172891 866.255965 C 761.738377 905.110527 716.388371 977.505199 716.388371 1061.119272 C 716.388371 1186.067987 816.890598 1286.570214 941.839312 1286.570214 C 1054.033338 1286.570214 1146.032439 1205.672417 1163.747285 1098.674746 L 1126.191811 1098.674746 C 1108.713163 1184.532701 1032.893622 1249.014741 941.839312 1249.014741 C 837.794116 1249.014741 753.943844 1165.282568 753.943844 1061.119272 C 753.943844 999.471608 783.468588 945.027981 829.172891 910.897377 Z M 829.172891 866.255965 " transform="matrix(0.0330761,0,0,0.0330761,0.000000253416,0.000000389943)"/>
</g>
</svg>
